X:1
T:Title
%%score { ( 1 4 ) | ( 2 3 ) }
L:1/8
M:3/4
K:Eb
V:1 treble nm="Grand Piano"
V:4 treble 
V:2 bass 
V:3 bass 
V:1
 z2 z2[Q:1/4=100] [EG]>[FA] | [GB]3 [GB] [Ac]>[EG] | [GB]2 [FA]2 [FA]>[GB] | [Fd]3 [Ac] [GB]>[FA] | %4
[M:2/4] [B,EG]4 |[M:1/4] [G,E]>[G,E] |[M:3/4] [Ece]3 [Ece] [EBd]>[EAc] | [EAc]2 [GB]2 [B,E]>[CEF] | %8
 [B,EG]3 [B,FA] [A,DF]>[A,DF] |[M:2/4] [G,B,E]4 |[M:1/4] B>B |[M:3/4] [Ad]4 z2 | [Ge]4 z2 | %13
 F3 e d>c |[M:2/4] [DB]4 |[M:1/4] [G,E]>[G,E] |[M:3/4] [Ece]3 [Ece] [EBd]>[EAc] | %17
 [EAc]2 [GB]2 [B,E]>[CEF] | [B,EG]3 [B,FA] [A,DF]>[A,DF] |[M:2/4] [G,B,E]4 |] %20
V:2
 z2 z2 [E,B,]>[E,B,] | [E,E]3 [E,E] [E,E]>[E,B,] | [B,,B,]4 [B,,B,]>[B,,B,] | %3
 [B,,B,]3 [B,,B,] [B,,B,]>[B,,B,] |[M:2/4] E,4 |[M:1/4] E,>E, |[M:3/4] A,,3 A, A,>A, | E,4 z2 | %8
 B,,3 B,, B,,>B,, |[M:2/4] E,4 |[M:1/4][K:treble] G>G |[M:3/4][K:bass] B,,>B,, B,,2[K:treble] A>G | %12
 [E,B,]>E, E,2 [E,B,E]>[E,B,E] | [F,=A,E]3 [F,A,G] [F,A,F]>[F,A,E] |[M:2/4] z2 A,2 |[M:1/4] E,>E, | %16
[M:3/4] A,,3 A, A,>A, | E,4 z2 | B,,3 B,, B,,>B,, |[M:2/4] E,4 |] %20
V:3
 x6 | x6 | x6 | x6 |[M:2/4] x4 |[M:1/4] x2 |[M:3/4] x6 | z2 B,2 G,,>A,, | x6 |[M:2/4] x4 | %10
[M:1/4][K:treble] x2 |[M:3/4][K:bass] x4[K:treble] x2 | x6 | x6 |[M:2/4] B,,4 |[M:1/4] x2 | %16
[M:3/4] x6 | z2 B,2 G,,>A,, | x6 |[M:2/4] x4 |] %20
V:4
 x6 | x6 | x6 | x6 |[M:2/4] x4 |[M:1/4] x2 |[M:3/4] x6 | x6 | x6 |[M:2/4] x4 |[M:1/4] x2 | %11
[M:3/4] F>F F2 c>B | z z/ B,/ B,2 G>G | x6 |[M:2/4] B,2 z2 |[M:1/4] x2 |[M:3/4] x6 | x6 | x6 | %19
[M:2/4] x4 |] %20

